X:1
T:Miserere Mei, Domine
T:Lassus
T:Miserere Mei, Domine
C:Lassus
%%score [ 1 2 3 4 ]
L:1/8
Q:1/2=80
M:4/2
K:C
V:1 treble nm="Soprano" snm="S."
V:2 treble nm="Alto" snm="A."
V:3 treble-8 nm="Tenor" snm="T."
V:4 bass nm="Bass" snm="B."
V:1
 z16 | z16 | z8 A8- | A4 A4 A4 A4 | ^G8 A8 | z4 A8 A4 | A4 A4 ^G8 | A8 F6 F2 | E4 E4 F4 G4 | %9
w: ||Mi-|* se- re- re|me- i,|mi- se-|re- re me-|i, Do- mi-|ne, se- cun- dum|
 A8 G4 G4 | A4 G4 c8 | B16 | z8 z4 G4- | G2 FE F4 E4 F4 | G4 A4 B4 (c4- | c2 B2 A6 ^G^F G4) | %16
w: ma- gnam, se-|cun- dum ma-|gnam|mi-|* * * * se- ri-|cor- di- am tu-||
 A8 z8 | z4 c8 B4 | c4 A4 c8 | z4 A8 G4 | (E6 F2 G4) G4 | c8 z8 | z4 c4 c4 c4 | (e6 d2 c4) B4 | %24
w: am:|de- le|Do- mi- ne,|de- le,|Do- * * mi-|ne,|in- i- qui-|ta- * * tem|
 E16- | E8 D4 G4 | G4 G4 (E6 F2 | G8 A6 B2 | c4) F4 F4 E4 | z4 c4 c4 c4 | (A6 G2 F8) | E8 (F6 G2 | %32
w: me-|* am, in-|i- qui- ta- *||* tem me- an,|in- i- qui-|ta- * *|tem me- *|
 A2 G2 G6 ^FE F4) | G8 z4 G4 | G4 G4 E6 F2 | G8 F8 | E16 | E16- | E16- | E16 |] %40
w: |am, in-|i- qui- ta- *|* tem|me-|am.|_||
V:2
 E12 E4 | E4 E4 C8 | B,8 (C6 D2 | E2 F2 E8) D4 | E4 B,4 C4 (C4- | C2 B,2 C2 D2 E2 F2 E4- | %6
w: Mi- se-|re- re me-|i, Do- *|* * * mi-|ne, mi- se- re-||
 E2 DC D4) E4 E4- | E4 E4 D4 D4 | ^C4 C4 D4 E4 | (A,2 B,2 C2 D2 E4) E4 | z4 E4 E4 F4 | G8 G4 G4 | %12
w: * * * * re, me-|* i, Do- mi-|ne, se- cun- dum|ma- * * * * gnam,|se- cun- dum|ma- gnam, se-|
 E4 (D6 ^CB, C4) | D8 ^C4 D4 | E4 (E6 F2 G4) | C4 D4 E8 | E8 E8 | z4 A8 G4 | E4 F4 E8 | z4 C8 B,4 | %20
w: cun- dum _ _ _|ma- gnam mi-|se- ri- * *|cor- di- am|tu- am:|de- le,|Do- mi- ne,|de- le|
 C4 A,4 (E6 F2 | G16- | G8) z4 C4 | C4 C4 (E6 D2 | C6 B,A, G,4) C4 | C4 B,4 z4 E4 | E4 E4 (G6 F2 | %27
w: Do- mi- ne, _|_|* in-|i- qui- ta- *|* * * * tem|me- am, in-|i- qui- ta- *|
 E4) E4 E4 A,4 | z4 C4 C4 C4 | (A,2 B,2 C2 D2 E4) E4 | (F6 ED C4) A,4 | z4 A,4 C4 D4 | %32
w: * tem me- am,|in- i- qui-|ta- * * * * tem|me- * * * am,|in- i- qui-|
 E8 D4 z2 D2 | D4 D4 (B,6 A,B, | C4) B,4 (G6 F2 | E2 D2 E4) D4 A,4 | A,4 A,4 C8- | C8 B,8 | C16 | %39
w: ta- tem, in-|i- qui- ta- * *|* tem me- *|* * * am, in-|i- qui- ta-|* tem|me-|
 B,16 |] %40
w: am.|
V:3
 z16 | z8 e8- | e4 e4 e4 e4 | c6 B2 A8 | B4 e8 e4 | e4 e4 (c6 B2 | A8) B8 | A12 A4 | A4 A8 c4- | %9
w: |Mi-|* se- re- re-|me- * *|i, mi- se-|re- re me- *|* i,|Do- mi-|ne, se- cun-|
 c4 A4 (c2 B2 c4) | c8 z4 c4 | d4 d4 e4 d4 | G16 | A8 A8 | c6 c2 G8 | (A8 B8) | c4 c8 B4 | %17
w: * dum ma- * *|gnam, se-|cun- dum ma- gnam|mi-|se- ri-|cor- di- am|tu- *|am: de- le,|
 c4 A4 e8 | z4 c8 B4 | c4 A4 e8 | z4 c4 c4 c4 | e6 d2 c4 B4 | e8 e4 A4 | G4 A4 A4 G4 | %24
w: Do- mi- ne,|de- le|Do- mi- ne,|in- i- qui-|ta- * * tem|me- am, in-|i- qui- ta- tem|
 A4 G4 z4 G4 | G4 G4 B4 B4 | c12 B4 | z4 c4 c4 c4 | (A6 G2 F2 G2 A2 B2 | c4) A4 G8 | %30
w: me- am, in-|i- qui- ta- tem|me- am,|in- i- qui-|ta- * * * * *|* tem me-|
 (d4 c2 B2 A4) c4 | c4 c4 (A6 B2 | c8) A8 | (B6 c2 d8) | e8 z4 c4 | c4 c4 A4 d4 | c8 A4 A4 | %37
w: am, _ _ _ i-|ni- qui- ta- *|* tem|me- * *|am, in-|i- qui- ta- tem|me- am, in-|
 (G2 E2 A8) ^G4 | A4 E4 A8 | ^G16 |] %40
w: i- * * qui-|ta- tem me-|am.|
V:4
 z8 A,8- | A,4 A,4 A,4 A,4 | ^G,8 A,8- | A,8 F,6 F,2 | E,8 A,8- | A,4 A,4 A,4 A,4 | F,8 E,8 | %7
w: Mi-|* se- re- re|me- i,|_ Do- mi-|ne, mi-|* se- re- re|me- i,|
 ^C,8 D,6 D,2 | A,,4 A,,4 D,4 C,4 | F,8 E,4 C,4 | F,4 E,4 A,8 | G,8 z4 G,,4 | C,4 B,,4 E,8 | %13
w: Do- * mi-|ne, se- cun- dum|ma- gnam, se-|cun- dum ma-|gnam, se-|cun- dum ma-|
 D,4 D,4 A,,4 D,4 | C,4 A,,4 E,8 | (F,8 E,8) | A,,4 A,8 G,4 | E,4 F,4 E,8 | z4 A,8 G,4 | %19
w: gnam mi- se- ri-|cor- di- am|tu- *|am: de- le|Do- mi- ne,|de- le,|
 E,4 F,4 E,8 | z8 z4 C,4 | C,4 C,4 E,6 D,2 | C,4 C,4 A,,8 | C,8 z8 | z4 C,4 C,4 C,4 | %25
w: Do- mi- ne,|in-|i- qui- ta- *|* tem me-|am,|in- i- qui-|
 (E,6 F,2 G,2 F,2 E,2 D,2 | C,4) (C,6 D,2 E,4) | C,8 A,,4 F,4 | F,4 F,4 A,6 G,2 | F,8 C,8 | %30
w: ta- * * * * *|* tem _ _|me- a, in-|i- qui- ta- *|* tem,|
 z4 F,4 F,4 F,4 | (A,6 G,2 F,2 E,2 D,4) | C,8 D,8 | G,,4 G,4 G,4 G,4 | E,6 D,2 C,4 C,4 | C,8 D,8 | %36
w: in- i- qui-|ta- * * * *|tem me-|am, in- i- qui-|ta- * * tem|me- am,|
 z4 A,,4 A,,4 A,,4 | (C,6 D,2 E,4) E,4 | A,,16 | E,16 |] %40
w: in- i- qui-|ta- * * tem|me-|am.|

